assets/svg/icon_article_h2_on.svg

<svg width="24" height="24" viewBox="0 0 24 24" fill="none" xmlns="http://www.w3.org/2000/svg">
<path fill-rule="evenodd" clip-rule="evenodd" d="M4.31802 4.31802C3 5.63604 3 7.75736 3 12C3 16.2426 3 18.364 4.31802 19.682C5.63604 21 7.75736 21 12 21C16.2426 21 18.364 21 19.682 19.682C21 18.364 21 16.2426 21 12C21 7.75736 21 5.63604 19.682 4.31802C18.364 3 16.2426 3 12 3C7.75736 3 5.63604 3 4.31802 4.31802ZM7.29922 9C7.29922 8.66863 7.03059 8.4 6.69922 8.4C6.36785 8.4 6.09922 8.66863 6.09922 9V15C6.09922 15.3314 6.36785 15.6 6.69922 15.6C7.03059 15.6 7.29922 15.3314 7.29922 15V12.6H10.0992V15C10.0992 15.3314 10.3678 15.6 10.6992 15.6C11.0306 15.6 11.2992 15.3314 11.2992 15V9C11.2992 8.66863 11.0306 8.4 10.6992 8.4C10.3678 8.4 10.0992 8.66863 10.0992 9V11.4H7.29922V9ZM13.2992 8.50001C12.9678 8.50001 12.6992 8.76864 12.6992 9.10001C12.6992 9.43138 12.9678 9.70001 13.2992 9.70001H16.6992V11.4H13.7992C13.1917 11.4 12.6992 11.8925 12.6992 12.5V14.6C12.6992 15.0418 13.0574 15.4 13.4992 15.4H17.2992C17.6306 15.4 17.8992 15.1314 17.8992 14.8C17.8992 14.4686 17.6306 14.2 17.2992 14.2H13.8992V12.6H16.7992C17.4067 12.6 17.8992 12.1075 17.8992 11.5V9.60001C17.8992 8.99249 17.4067 8.50001 16.7992 8.50001H13.2992Z" fill="#0166FF"/>
</svg>

<svg xmlns="http://www.w3.org/2000/svg" width="24" height="24" fill="none"><path fill="#0166FF" fill-rule="evenodd" d="M4.318 4.318C3 5.636 3 7.758 3 12s0 6.364 1.318 7.682S7.758 21 12 21s6.364 0 7.682-1.318S21 16.242 21 12s0-6.364-1.318-7.682S16.242 3 12 3 5.636 3 4.318 4.318M7.299 9a.6.6 0 0 0-1.2 0v6a.6.6 0 1 0 1.2 0v-2.4h2.8V15a.6.6 0 1 0 1.2 0V9a.6.6 0 1 0-1.2 0v2.4H7.3zm6-.5a.6.6 0 1 0 0 1.2h3.4v1.7h-2.9a1.1 1.1 0 0 0-1.1 1.1v2.1a.8.8 0 0 0 .8.8h3.8a.6.6 0 1 0 0-1.2h-3.4v-1.6h2.9a1.1 1.1 0 0 0 1.1-1.1V9.6a1.1 1.1 0 0 0-1.1-1.1z" clip-rule="evenodd"/></svg>
